source/img/icons/sm_pint.svg

<svg width="21" height="21" viewBox="0 0 21 21" fill="none" xmlns="http://www.w3.org/2000/svg">
<path d="M11.3701 0.094077C8.97736 -0.235068 6.54634 0.312629 4.52592 1.63604C2.5055 2.95944 1.03214 4.96918 0.377895 7.29414C-0.276351 9.61911 -0.067296 12.1023 0.966459 14.2851C2.00021 16.468 3.78885 18.2031 6.0021 19.1701C5.94224 18.4019 5.99718 17.6291 6.1651 16.8771C6.3501 16.0381 7.4611 11.4141 7.4611 11.4141C7.23986 10.9182 7.1293 10.38 7.1371 9.83708C7.1371 8.35208 7.9941 7.24408 9.0601 7.24408C9.2516 7.24129 9.44146 7.27977 9.61677 7.35691C9.79208 7.43404 9.94872 7.54802 10.076 7.6911C10.2034 7.83418 10.2984 8.00299 10.3547 8.18607C10.4109 8.36914 10.4271 8.56219 10.4021 8.75208C10.4021 9.65208 9.8241 11.0141 9.5221 12.2921C9.46241 12.5265 9.45862 12.7716 9.51104 13.0077C9.56345 13.2438 9.6706 13.4643 9.82385 13.6514C9.97711 13.8385 10.1722 13.987 10.3933 14.0849C10.6145 14.1828 10.8555 14.2274 11.0971 14.2151C12.9951 14.2151 14.2671 11.7841 14.2671 8.91408C14.2671 6.71408 12.8101 5.06608 10.1241 5.06608C9.48147 5.04111 8.84048 5.147 8.24003 5.37733C7.63958 5.60766 7.09221 5.95762 6.63115 6.40597C6.17008 6.85431 5.80495 7.39168 5.55792 7.98545C5.31089 8.57922 5.18711 9.21701 5.1941 9.86008C5.16546 10.5734 5.3956 11.273 5.8421 11.8301C5.92553 11.8924 5.98645 11.9801 6.01567 12.08C6.04489 12.1799 6.04083 12.2867 6.0041 12.3841C5.9581 12.5681 5.8421 13.0071 5.7961 13.1681C5.78653 13.2227 5.76427 13.2743 5.73112 13.3187C5.69797 13.3631 5.65484 13.3991 5.60523 13.4238C5.55561 13.4486 5.50088 13.4613 5.44545 13.461C5.39002 13.4607 5.33544 13.4473 5.2861 13.4221C3.9021 12.8681 3.2501 11.3451 3.2501 9.60608C3.2501 6.75908 5.6341 3.35108 10.4041 3.35108C14.2001 3.35108 16.7241 6.12808 16.7241 9.09808C16.7241 13.0071 14.5471 15.9461 11.3301 15.9461C10.8493 15.9614 10.3724 15.8553 9.94343 15.6375C9.51449 15.4198 9.1474 15.0973 8.8761 14.7001C8.8761 14.7001 8.2981 17.0161 8.1841 17.4541C7.95139 18.2108 7.608 18.9289 7.1651 19.5851C8.0881 19.8651 9.0471 20.0051 10.0111 20.0011C11.3247 20.0021 12.6256 19.7441 13.8393 19.2417C15.053 18.7392 16.1556 18.0024 17.0842 17.0732C18.0127 16.144 18.7488 15.0408 19.2504 13.8268C19.7519 12.6127 20.0091 11.3117 20.0071 9.99808C20.0059 7.58308 19.1309 5.25007 17.5437 3.42986C15.9566 1.60964 13.7644 0.425141 11.3721 0.095077L11.3701 0.094077Z" fill="white"/>
</svg>

<svg width="21" height="21" fill="none" xmlns="http://www.w3.org/2000/svg"><path d="M11.37.094A10.003 10.003 0 006.002 19.17a7.757 7.757 0 01.163-2.293c.185-.839 1.296-5.463 1.296-5.463a3.739 3.739 0 01-.324-1.577c0-1.485.857-2.593 1.923-2.593a1.334 1.334 0 011.342 1.508c0 .9-.578 2.262-.88 3.54a1.544 1.544 0 001.575 1.923c1.898 0 3.17-2.43 3.17-5.3 0-2.2-1.457-3.849-4.143-3.849a4.746 4.746 0 00-4.93 4.794 2.96 2.96 0 00.648 1.97.48.48 0 01.162.554c-.046.184-.162.623-.208.784a.354.354 0 01-.51.254c-1.384-.554-2.036-2.077-2.036-3.816 0-2.847 2.384-6.255 7.154-6.255 3.796 0 6.32 2.777 6.32 5.747 0 3.91-2.177 6.848-5.394 6.848A2.862 2.862 0 018.876 14.7s-.578 2.316-.692 2.754a8.026 8.026 0 01-1.019 2.131c.923.28 1.882.42 2.846.416a9.99 9.99 0 009.996-10.003A10.002 10.002 0 0011.372.095h-.002z" fill="#fff"/></svg>
